lib/build/svg/brand/office-365.svg

<svg width="24" height="24" viewBox="0 0 24 24" fill="none" xmlns="http://www.w3.org/2000/svg">
<path d="M12.5713 2.06854L13.9371 5.66579V17.963L12.6036 21.9339L18.5058 20.2943C18.9066 20.1828 19.2599 19.9431 19.5116 19.6118C19.7633 19.2806 19.8995 18.8759 19.8994 18.4599V5.54157C19.8994 5.12519 19.7628 4.72031 19.5106 4.38898C19.2585 4.05765 18.9046 3.81815 18.5033 3.70718L12.5713 2.06854Z" fill="url(#paint0_linear)"/>
<path d="M7.23901 16.8779L5.48163 17.8388C5.32916 17.9222 5.1576 17.9645 4.98383 17.9615C4.81006 17.9585 4.64007 17.9103 4.49058 17.8217C4.34109 17.733 4.21724 17.607 4.13122 17.456C4.04521 17.305 3.99998 17.1342 4 16.9604V7.44953C3.99999 7.11513 4.08823 6.78665 4.25582 6.49727C4.42341 6.20789 4.66441 5.96787 4.95446 5.80146L11.1463 2.24843C11.4286 2.08623 11.7484 2.00059 12.0739 2V2C12.3188 1.99974 12.5613 2.0478 12.7876 2.14144C13.0139 2.23507 13.2194 2.37244 13.3925 2.54567C13.5656 2.71889 13.7028 2.92457 13.7963 3.15092C13.8897 3.37726 13.9376 3.61983 13.9371 3.86471V5.66581L8.90497 7.50021C8.63229 7.59968 8.39679 7.7806 8.23041 8.01845C8.06403 8.25629 7.97481 8.53954 7.97486 8.8298V15.6367C7.97476 15.8906 7.9064 16.1398 7.77694 16.3581C7.64748 16.5765 7.46169 16.756 7.23901 16.8779V16.8779Z" fill="url(#paint1_linear)"/>
<path d="M13.9372 17.963V20.1775C13.9375 20.4169 13.8907 20.6541 13.7992 20.8754C13.7078 21.0967 13.5735 21.2978 13.4042 21.4671C13.2349 21.6364 13.0339 21.7706 12.8126 21.8621C12.5913 21.9535 12.3541 22.0004 12.1147 22V22C11.8029 22 11.4963 21.9199 11.2243 21.7674L7.34336 19.5927C7.17544 19.4985 7.04348 19.3513 6.96815 19.1741C6.89281 18.9969 6.87835 18.7997 6.92702 18.6135C6.9757 18.4272 7.08476 18.2623 7.23714 18.1446C7.38952 18.0269 7.57663 17.963 7.76917 17.963H13.9372Z" fill="url(#paint2_linear)"/>
<path d="M7.23901 16.8779L5.48163 17.8388C5.32916 17.9222 5.1576 17.9645 4.98383 17.9615C4.81006 17.9585 4.64007 17.9103 4.49058 17.8217C4.34109 17.733 4.21724 17.607 4.13122 17.456C4.04521 17.305 3.99998 17.1342 4 16.9604V7.44953C3.99999 7.11513 4.08823 6.78665 4.25582 6.49727C4.42341 6.20789 4.66441 5.96787 4.95446 5.80146L11.1463 2.24843C11.4286 2.08623 11.7484 2.00059 12.0739 2V2C12.3188 1.99974 12.5613 2.0478 12.7876 2.14144C13.0139 2.23507 13.2194 2.37244 13.3925 2.54567C13.5656 2.71889 13.7028 2.92457 13.7963 3.15092C13.8897 3.37726 13.9376 3.61983 13.9371 3.86471V5.66581L8.90497 7.50021C8.63229 7.59968 8.39679 7.7806 8.23041 8.01845C8.06403 8.25629 7.97481 8.53954 7.97486 8.8298V15.6367C7.97476 15.8906 7.9064 16.1398 7.77694 16.3581C7.64748 16.5765 7.46169 16.756 7.23901 16.8779V16.8779Z" fill="url(#paint3_linear)"/>
<path d="M13.9372 17.963V20.1775C13.9375 20.4169 13.8907 20.6541 13.7992 20.8754C13.7078 21.0967 13.5735 21.2978 13.4042 21.4671C13.2349 21.6364 13.0339 21.7706 12.8126 21.8621C12.5913 21.9535 12.3541 22.0004 12.1147 22V22C11.8029 22 11.4963 21.9199 11.2243 21.7674L7.34336 19.5927C7.17544 19.4985 7.04348 19.3513 6.96815 19.1741C6.89281 18.9969 6.87835 18.7997 6.92702 18.6135C6.9757 18.4272 7.08476 18.2623 7.23714 18.1446C7.38952 18.0269 7.57663 17.963 7.76917 17.963H13.9372Z" fill="url(#paint4_linear)"/>
<defs>
<linearGradient id="paint0_linear" x1="16.2351" y1="0.939683" x2="16.2351" y2="20.5397" gradientUnits="userSpaceOnUse">
<stop stop-color="#FFB900"/>
<stop offset="0.166" stop-color="#EF8400"/>
<stop offset="0.313" stop-color="#E25C01"/>
<stop offset="0.429" stop-color="#DB4401"/>
<stop offset="0.5" stop-color="#D83B01"/>
</linearGradient>
<linearGradient id="paint1_linear" x1="12.7824" y1="1.76201" x2="2.28982" y2="16.7472" gradientUnits="userSpaceOnUse">
<stop stop-color="#800600"/>
<stop offset="0.6" stop-color="#C72127"/>
<stop offset="0.728" stop-color="#C13959"/>
<stop offset="0.847" stop-color="#BC4B81"/>
<stop offset="0.942" stop-color="#B95799"/>
<stop offset="1" stop-color="#B85BA2"/>
</linearGradient>
<linearGradient id="paint2_linear" x1="7.46211" y1="19.9817" x2="20.3928" y2="19.9817" gradientUnits="userSpaceOnUse">
<stop stop-color="#F32B44"/>
<stop offset="0.6" stop-color="#A4070A"/>
</linearGradient>
<linearGradient id="paint3_linear" x1="12.9971" y1="1.45545" x2="10.7751" y2="4.62887" gradientUnits="userSpaceOnUse">
<stop stop-opacity="0.4"/>
<stop offset="1" stop-opacity="0"/>
</linearGradient>
<linearGradient id="paint4_linear" x1="16.26" y1="20.2679" x2="10.4601" y2="19.7606" gradientUnits="userSpaceOnUse">
<stop stop-opacity="0.4"/>
<stop offset="1" stop-opacity="0"/>
</linearGradient>
</defs>
</svg>

<svg width="24" height="24" viewBox="0 0 24 24" fill="none" xmlns="http://www.w3.org/2000/svg">
  <path d="M12.571 2.069l1.366 3.597v12.297l-1.333 3.97 5.902-1.639a1.904 1.904 0 001.393-1.834V5.542a1.903 1.903 0 00-1.396-1.835L12.571 2.07z" fill="url(#office-365__paint0_linear)"/>
  <path d="M7.239 16.878l-1.757.96A1.001 1.001 0 014 16.96V7.45a1.9 1.9 0 01.954-1.65l6.192-3.553a1.869 1.869 0 011.642-.107 1.86 1.86 0 011.15 1.724v1.8L8.904 7.5a1.415 1.415 0 00-.93 1.33v6.807a1.415 1.415 0 01-.736 1.24z" fill="url(#office-365__paint1_linear)"/>
  <path d="M13.937 17.963v2.214a1.82 1.82 0 01-2.713 1.59l-3.88-2.174a.87.87 0 01.425-1.63h6.168z" fill="url(#office-365__paint2_linear)"/>
  <path d="M7.239 16.878l-1.757.96A1.001 1.001 0 014 16.96V7.45a1.9 1.9 0 01.954-1.65l6.192-3.553a1.869 1.869 0 011.642-.107 1.86 1.86 0 011.15 1.724v1.8L8.904 7.5a1.415 1.415 0 00-.93 1.33v6.807a1.415 1.415 0 01-.736 1.24z" fill="url(#office-365__paint3_linear)"/>
  <path d="M13.937 17.963v2.214a1.82 1.82 0 01-2.713 1.59l-3.88-2.174a.87.87 0 01.425-1.63h6.168z" fill="url(#office-365__paint4_linear)"/>
  <defs>
    <linearGradient id="office-365__paint0_linear" x1="16.235" y1=".94" x2="16.235" y2="20.54" gradientUnits="userSpaceOnUse">
      <stop stop-color="#FFB900"/>
      <stop offset=".166" stop-color="#EF8400"/>
      <stop offset=".313" stop-color="#E25C01"/>
      <stop offset=".429" stop-color="#DB4401"/>
      <stop offset=".5" stop-color="#D83B01"/>
    </linearGradient>
    <linearGradient id="office-365__paint1_linear" x1="12.782" y1="1.762" x2="2.29" y2="16.747" gradientUnits="userSpaceOnUse">
      <stop stop-color="#800600"/>
      <stop offset=".6" stop-color="#C72127"/>
      <stop offset=".728" stop-color="#C13959"/>
      <stop offset=".847" stop-color="#BC4B81"/>
      <stop offset=".942" stop-color="#B95799"/>
      <stop offset="1" stop-color="#B85BA2"/>
    </linearGradient>
    <linearGradient id="office-365__paint2_linear" x1="7.462" y1="19.982" x2="20.393" y2="19.982" gradientUnits="userSpaceOnUse">
      <stop stop-color="#F32B44"/>
      <stop offset=".6" stop-color="#A4070A"/>
    </linearGradient>
    <linearGradient id="office-365__paint3_linear" x1="12.997" y1="1.455" x2="10.775" y2="4.629" gradientUnits="userSpaceOnUse">
      <stop stop-opacity=".4"/>
      <stop offset="1" stop-opacity="0"/>
    </linearGradient>
    <linearGradient id="office-365__paint4_linear" x1="16.26" y1="20.268" x2="10.46" y2="19.761" gradientUnits="userSpaceOnUse">
      <stop stop-opacity=".4"/>
      <stop offset="1" stop-opacity="0"/>
    </linearGradient>
  </defs>
</svg>
